X:72
T:New Castle Hornpipe. JBu.72
T:Kirkgate Hornpipe,aka. JBu.72
O:England,South Yorkshire
S:Joshua Burnett’s MS,c1835,S.Yorkshire
M:C
L:1/8
Q:1/2=80
R:.hornpipe
N:No time sig in ms
Z:vmp.R.Greig.2011
K:G
(gd)|B2B2BcAB|G2G2G2(Bc)|(dB)dB (ed)cB|(AB)AG (GF)ED|
B2B2Bdce|d2d2d2(ed)|(cB)AG (FG)EF|D2D2D2:|
|:AB|c2c2c2 (AB)|(cB)AG (GF)ED|d2d2d2 (ef)|(gd)ec (Bd)BG|
e2e2efge|(dB)ge (dB)GB|(cd)ec (Bc)AB|G2G2G2:|

